public/images/hashed/1c86f78c5051cd41c5782dbfdfdf0880.svg

<?xml version="1.0" encoding="UTF-8"?>
<svg width="80px" height="80px" viewBox="0 0 80 80" version="1.1" xmlns="http://www.w3.org/2000/svg" xmlns:xlink="http://www.w3.org/1999/xlink">
    <!-- Generator: Sketch 64 (93537) - https://sketch.com -->
    <title>Icon-Architecture/64/Arch_AWS-Control-Tower_64</title>
    <desc>Created with Sketch.</desc>
    <defs>
        <linearGradient x1="0%" y1="100%" x2="100%" y2="0%" id="linearGradient-1">
            <stop stop-color="#B0084D" offset="0%"></stop>
            <stop stop-color="#FF4F8B" offset="100%"></stop>
        </linearGradient>
    </defs>
    <g id="Icon-Architecture/64/Arch_AWS-Control-Tower_64" stroke="none" stroke-width="1" fill="none" fill-rule="evenodd">
        <g id="Icon-Architecture-BG/64/Management-Governance" fill="url(#linearGradient-1)">
            <rect id="Rectangle" x="0" y="0" width="80" height="80"></rect>
        </g>
        <path d="M37.1966696,58.8503867 L35.7782337,60.2688225 L32.9413621,57.4309477 L34.3597979,56.0125119 L37.1966696,58.8503867 Z M23.0093018,44.664022 L25.8481798,47.5018968 L24.4287408,48.9203327 L21.590866,46.0824579 L23.0093018,44.664022 Z M28.6850514,50.3387685 L31.5219231,53.1756402 L30.1034873,54.594076 L27.2666156,51.7572043 L28.6850514,50.3387685 Z M53.2458598,31.5399796 L50.400963,28.711133 L51.8153863,27.2886846 L54.6602831,30.1175312 L53.2458598,31.5399796 Z M58.9366565,37.1986759 L56.0917597,34.3698293 L57.506183,32.9473809 L60.3510797,35.7762275 L58.9366565,37.1986759 Z M44.7101663,23.0514336 L46.1245896,21.6299883 L48.9694864,24.4588349 L47.5550631,25.8812833 L44.7101663,23.0514336 Z M58.0318268,44.7021412 L59.4462501,46.1235865 L56.6013533,48.9534362 L55.18693,47.5309878 L58.0318268,44.7021412 Z M52.3410301,50.3608375 L53.7554534,51.7832859 L50.9105566,54.6121325 L49.4961334,53.1896841 L52.3410301,50.3608375 Z M46.6502335,56.0195338 L48.0646567,57.4419822 L45.21976,60.2708288 L43.8053367,58.8483804 L46.6502335,56.0195338 Z M22.1496133,37.1966696 L20.7311775,35.7782337 L23.5680492,32.9403589 L24.986485,34.3587948 L22.1496133,37.1966696 Z M33.4981032,25.8481798 L32.0796673,24.4297439 L34.9185453,21.5918691 L36.3369811,23.010305 L33.4981032,25.8481798 Z M27.8243598,31.5219231 L26.405924,30.1034873 L29.2427957,27.2666156 L30.6612315,28.6850514 L27.8243598,31.5219231 Z M36.7934085,36.7934085 C37.5588021,36.0280149 38.5057635,35.5485154 39.4968629,35.3569162 L39.4968629,39.4968629 L35.3569162,39.4968629 C35.5485154,38.5057635 36.0270117,37.5598052 36.7934085,36.7934085 L36.7934085,36.7934085 Z M44.2065915,36.7934085 C44.9729883,37.5598052 45.4514846,38.5057635 45.6430838,39.4968629 L41.5031371,39.4968629 L41.5031371,35.3569162 C42.4942365,35.5485154 43.4411979,36.0280149 44.2065915,36.7934085 L44.2065915,36.7934085 Z M44.2065915,44.2065915 C43.4411979,44.9729883 42.4942365,45.4514846 41.5031371,45.6430838 L41.5031371,41.5031371 L45.6430838,41.5031371 C45.4514846,42.4942365 44.9729883,43.4401948 44.2065915,44.2065915 L44.2065915,44.2065915 Z M36.7934085,44.2065915 C36.0270117,43.4401948 35.5485154,42.4942365 35.3569162,41.5031371 L39.4968629,41.5031371 L39.4968629,45.6430838 C38.5057635,45.4514846 37.5588021,44.9729883 36.7934085,44.2065915 L36.7934085,44.2065915 Z M31.1778471,43.8033304 L28.8776538,41.5031371 L33.3325855,41.5031371 C33.5422412,43.0118553 34.2173524,44.4674072 35.3749726,45.6250274 C36.5325928,46.7826476 37.9881447,47.4577588 39.4968629,47.6674145 L39.4968629,52.1223462 L37.1966696,49.8221529 L35.7782337,51.2405888 L40.5,55.962355 L45.2217663,51.2405888 L43.8033304,49.8221529 L41.5031371,52.1223462 L41.5031371,47.6674145 C43.0118553,47.4577588 44.4684103,46.7826476 45.6250274,45.6250274 C46.7826476,44.4674072 47.4577588,43.0118553 47.6674145,41.5031371 L52.1223462,41.5031371 L49.8221529,43.8033304 L51.2405888,45.2217663 L55.962355,40.5 L51.2405888,35.7782337 L49.8221529,37.1966696 L52.1223462,39.4968629 L47.6674145,39.4968629 C47.4577588,37.9881447 46.7826476,36.5325928 45.6250274,35.3749726 C44.4674072,34.2173524 43.0118553,33.5422412 41.5031371,33.3335887 L41.5031371,28.8776538 L43.8033304,31.1778471 L45.2217663,29.7594112 L40.5,25.037645 L35.7782337,29.7594112 L37.1966696,31.1778471 L39.4968629,28.8776538 L39.4968629,33.3335887 C37.9881447,33.5422412 36.5325928,34.2173524 35.3749726,35.3749726 C34.2173524,36.5325928 33.5422412,37.9881447 33.3325855,39.4968629 L28.8776538,39.4968629 L31.1778471,37.1966696 L29.7594112,35.7782337 L25.037645,40.5 L29.7594112,45.2217663 L31.1778471,43.8033304 Z M40.5,65.1631283 L38.9090246,63.5721529 L40.5,61.9811775 L42.0909754,63.5721529 L40.5,65.1631283 Z M36.0721529,63.5721529 L40.5,68 L44.9278471,63.5721529 L40.5,59.1443058 L36.0721529,63.5721529 Z M15.8368717,40.5 L17.4278471,38.9090246 L19.0188225,40.5 L17.4278471,42.0909754 L15.8368717,40.5 Z M17.4278471,36.0721529 L13,40.5 L17.4278471,44.9278471 L21.8556942,40.5 L17.4278471,36.0721529 Z M61.9811775,40.5 L63.5721529,38.9090246 L65.1631283,40.5 L63.5721529,42.0909754 L61.9811775,40.5 Z M63.5721529,36.0721529 L59.1443058,40.5 L63.5721529,44.9278471 L68,40.5 L63.5721529,36.0721529 Z M40.5,15.8368717 L42.0909754,17.4278471 L40.5,19.0188225 L38.9090246,17.4278471 L40.5,15.8368717 Z M44.9278471,17.4278471 L40.5,13 L36.0721529,17.4278471 L40.5,21.8556942 L44.9278471,17.4278471 Z" id="AWS-Control-Tower_Icon_64_Squid" fill="#FFFFFF"></path>
    </g>
</svg>

<svg xmlns="http://www.w3.org/2000/svg" width="80" height="80"><defs><linearGradient id="a" x1="0%" x2="100%" y1="100%" y2="0%"><stop offset="0%" stop-color="#B0084D"/><stop offset="100%" stop-color="#FF4F8B"/></linearGradient></defs><g fill="none" fill-rule="evenodd"><path fill="url(#a)" d="M0 0h80v80H0z"/><path fill="#FFF" d="m37.197 58.85-1.419 1.419-2.837-2.838 1.419-1.418 2.837 2.837ZM23.009 44.664l2.84 2.838-1.42 1.418-2.838-2.838 1.418-1.418Zm5.676 5.675 2.837 2.837-1.419 1.418-2.836-2.837 1.418-1.418Zm24.56-18.799-2.844-2.829 1.414-1.422 2.845 2.829-1.414 1.422Zm5.692 5.659-2.845-2.83 1.414-1.422 2.845 2.83-1.414 1.422ZM44.71 23.05l1.415-1.421 2.844 2.829-1.414 1.422-2.845-2.83Zm13.322 21.651 1.414 1.422-2.845 2.83-1.414-1.423 2.845-2.829Zm-5.691 5.659 1.414 1.422-2.844 2.83-1.415-1.423 2.845-2.83Zm-5.69 5.659 1.414 1.422-2.845 2.829-1.415-1.423 2.845-2.828ZM22.15 37.197l-1.419-1.419 2.837-2.838 1.418 1.419-2.836 2.838Zm11.348-11.349L32.08 24.43l2.839-2.838 1.418 1.418-2.839 2.838Zm-5.674 5.674-1.418-1.419 2.837-2.836 1.418 1.418-2.837 2.837Zm8.97 5.271a5.213 5.213 0 0 1 2.703-1.436v4.14h-4.14a5.21 5.21 0 0 1 1.436-2.704Zm7.413 0a5.21 5.21 0 0 1 1.436 2.704h-4.14v-4.14a5.213 5.213 0 0 1 2.704 1.436Zm0 7.414a5.206 5.206 0 0 1-2.704 1.436v-4.14h4.14a5.21 5.21 0 0 1-1.436 2.704Zm-7.414 0a5.21 5.21 0 0 1-1.436-2.704h4.14v4.14a5.206 5.206 0 0 1-2.704-1.436Zm-5.615-.404-2.3-2.3h4.455a7.203 7.203 0 0 0 2.042 4.122 7.203 7.203 0 0 0 4.122 2.042v4.455l-2.3-2.3-1.419 1.419 4.722 4.721 4.722-4.721-1.419-1.419-2.3 2.3v-4.455a7.2 7.2 0 0 0 4.122-2.042 7.203 7.203 0 0 0 2.042-4.122h4.455l-2.3 2.3 1.419 1.419 4.721-4.722-4.721-4.722-1.419 1.419 2.3 2.3h-4.455a7.196 7.196 0 0 0-6.164-6.163v-4.456l2.3 2.3 1.419-1.419-4.722-4.721-4.722 4.721 1.419 1.419 2.3-2.3v4.456a7.196 7.196 0 0 0-6.164 6.163h-4.455l2.3-2.3-1.419-1.419-4.721 4.722 4.721 4.722 1.419-1.419Zm9.322 21.36-1.591-1.59L40.5 61.98l1.591 1.591-1.591 1.591Zm-4.428-1.59L40.5 68l4.428-4.428-4.428-4.428-4.428 4.428ZM15.837 40.5l1.59-1.591L19.02 40.5l-1.591 1.591-1.591-1.591Zm1.59-4.428L13 40.5l4.428 4.428 4.428-4.428-4.428-4.428ZM61.982 40.5l1.591-1.591 1.591 1.591-1.59 1.591L61.98 40.5Zm1.591-4.428L59.144 40.5l4.428 4.428L68 40.5l-4.428-4.428ZM40.5 15.837l1.591 1.59L40.5 19.02l-1.591-1.591 1.591-1.591Zm4.428 1.59L40.5 13l-4.428 4.428 4.428 4.428 4.428-4.428Z"/></g></svg>
